svgs/sharp-solid/gas-pump.svg

<svg xmlns="http://www.w3.org/2000/svg" viewBox="0 0 512 512"><!--! Font Awesome Pro 6.6.0 by @fontawesome - https://fontawesome.com License - https://fontawesome.com/license (Commercial License) Copyright 2024 Fonticons, Inc. --><path d="M32 0L320 0l0 256 8 0c48.6 0 88 39.4 88 88l0 32c0 13.3 10.7 24 24 24s24-10.7 24-24l0-154c-27.6-7.1-48-32.2-48-62l0-64L368 48l32-32L512 128l0 64 0 32 0 152c0 39.8-32.2 72-72 72s-72-32.2-72-72l0-32c0-22.1-17.9-40-40-40l-8 0 0 112L32 416 32 0zM96 64l0 128 160 0 0-128L96 64zM352 448l0 64L0 512l0-64 352 0z"/></svg>

<svg xmlns="http://www.w3.org/2000/svg" viewBox="0 0 512 512"><!--! Font Awesome Pro 6.5.2 by @fontawesome - https://fontawesome.com License - https://fontawesome.com/license (Commercial License) Copyright 2024 Fonticons, Inc. --><path d="M32 0H320V256h8c48.6 0 88 39.4 88 88v32c0 13.3 10.7 24 24 24s24-10.7 24-24V222c-27.6-7.1-48-32.2-48-62V96L368 48l32-32L512 128v40 24 32V376c0 39.8-32.2 72-72 72s-72-32.2-72-72V344c0-22.1-17.9-40-40-40h-8V416H32V0zM96 64V192H256V64H96zM352 448v64H0V448H352z"/></svg>
